images/catalyst_icon.svg

<svg fill="none" height="76" viewBox="0 0 88 76" width="88" xmlns="http://www.w3.org/2000/svg"><path d="m82.6177 45.1894c-.4828-.8895-1.2068-1.3343-2.1723-1.3343l-14.3609.1213 9.1717-11.6449c.3218-.4043.4827-.8896.4827-1.4556v-10.1893c0-.7279-.2414-1.3141-.7241-1.7589s-1.0459-.6672-1.6895-.6672h-8.8097c-.885 0-1.5688.3639-2.0515 1.0917l-11.2233 17.9526 4.9479-23.6537c.2414-.8896 0-1.6578-.7241-2.3048l-11.2232-10.674477c-.4828-.404338-1.0258-.6267238-1.6292-.66715756-.6034-.04043384-1.1465.18195256-1.6292.66715756l-11.706 10.310577c-.7241.647-1.0057 1.4557-.8447 2.4261l3.6204 17.8313-11.344-6.1864c-.4827-.2426-1.0056-.3235-1.5688-.2426s-1.0459.3639-1.4482.8491l-8.68896 9.8254c-.40226.4044-.6034.9098-.6034 1.5163s.20114 1.1524.6034 1.6376l6.99946 8.9763-10.13714-.1213c-.96544 0-1.68952.4447-2.17225 1.3343l-3.499722 6.7929c-.1609066.4852-.2212467.9704-.18102 1.4556.0402268.4852.221247.8895.543061 1.213 3.379041 4.0434 7.763761 7.5207 13.154171 10.4319 8.8499 4.8521 19.0071 7.2781 30.4717 7.2781s21.5817-2.4665 30.3511-7.3994c5.3099-2.9112 9.6142-6.3885 12.9128-10.4319.3218-.4043.5028-.8491.543-1.3343.0403-.4852-.0201-.93-.181-1.3343zm-48.3928 21.1065-11.5853-9.0976c-.2414-.2426-.3821-.5054-.4224-.7885-.0402-.283.0604-.5458.3017-.7884l4.7066-4.7308c.2413-.2426.543-.3437.9051-.3032.362.0404.6235.2223.7844.5458l6.8787 13.9497c.2414.4043.161.7884-.2413 1.1523s-.8448.3842-1.3275.0607zm15.085-17.1035-4.2238 15.6479c-.1609.566-.5028.8289-1.0258.7884-.5229-.0404-.8246-.3032-.9051-.7884l-4.9478-29.7189c-.0805-.5661.1206-.9502.6034-1.1523.4827-.2022.8849-.1011 1.2068.3032l8.6889 11.5236c.7241.9705.9252 2.1026.6034 3.3965z" fill="#fff"/></svg>

<svg width="88" height="76" viewBox="0 0 88 76" fill="none" xmlns="http://www.w3.org/2000/svg">
<path d="M82.6177 45.1894C82.1349 44.2999 81.4109 43.8551 80.4454 43.8551L66.0845 43.9764L75.2562 32.3315C75.578 31.9272 75.7389 31.4419 75.7389 30.8759V20.6866C75.7389 19.9587 75.4975 19.3725 75.0148 18.9277C74.5321 18.4829 73.9689 18.2605 73.3253 18.2605H64.5156C63.6306 18.2605 62.9468 18.6244 62.4641 19.3522L51.2408 37.3048L56.1887 13.6511C56.4301 12.7615 56.1887 11.9933 55.4646 11.3463L44.2414 0.671823C43.7586 0.267485 43.2156 0.0450992 42.6122 0.00466544C42.0088 -0.0357684 41.4657 0.186618 40.983 0.671823L29.277 10.9824C28.5529 11.6294 28.2713 12.4381 28.4323 13.4085L32.0527 31.2398L20.7087 25.0534C20.226 24.8108 19.7031 24.7299 19.1399 24.8108C18.5767 24.8917 18.094 25.1747 17.6917 25.6599L9.00274 35.4853C8.60048 35.8897 8.39934 36.3951 8.39934 37.0016C8.39934 37.6081 8.60048 38.154 9.00274 38.6392L16.0022 47.6155L5.86506 47.4942C4.89962 47.4942 4.17554 47.9389 3.69281 48.8285L0.193088 55.6214C0.0321814 56.1066 -0.0281587 56.5918 0.012068 57.077C0.0522948 57.5622 0.233315 57.9665 0.555129 58.29C3.93417 62.3334 8.31889 65.8107 13.7093 68.7219C22.5592 73.574 32.7164 76 44.181 76C55.6456 76 65.7627 73.5335 74.5321 68.6006C79.842 65.6894 84.1463 62.2121 87.4449 58.1687C87.7667 57.7644 87.9477 57.3196 87.9879 56.8344C88.0282 56.3492 87.9678 55.9044 87.8069 55.5001L82.6177 45.1894ZM34.2249 66.2959L22.6396 57.1983C22.3982 56.9557 22.2575 56.6929 22.2172 56.4098C22.177 56.1268 22.2776 55.864 22.5189 55.6214L27.2255 50.8906C27.4668 50.648 27.7685 50.5469 28.1306 50.5874C28.4926 50.6278 28.7541 50.8097 28.915 51.1332L35.7937 65.0829C36.0351 65.4872 35.9547 65.8713 35.5524 66.2352C35.1501 66.5991 34.7076 66.6194 34.2249 66.2959ZM49.3099 49.1924L45.0861 64.8403C44.9252 65.4063 44.5833 65.6692 44.0603 65.6287C43.5374 65.5883 43.2357 65.3255 43.1552 64.8403L38.2074 35.1214C38.1269 34.5553 38.328 34.1712 38.8108 33.9691C39.2935 33.7669 39.6957 33.868 40.0176 34.2723L48.7065 45.7959C49.4306 46.7664 49.6317 47.8985 49.3099 49.1924Z" fill="white"/>
</svg>
